packages/ffe-icons/icons/open/400/sm/variable_add.svg

<svg xmlns="http://www.w3.org/2000/svg" height="20" viewBox="0 -960 960 960" width="20"><path d="M180.288-288Q165-288 154.5-298.35T144-324v-312q0-15.3 10.35-25.65Q164.7-672 180-672h600q15.3 0 25.65 10.314Q816-651.371 816-636.124v35.877Q816-585 805.711-574.5q-10.29 10.5-25.5 10.5Q765-564 754.5-574.35 744-584.7 744-600H216v240h288q15.3 0 25.65 10.289 10.35 10.29 10.35 25.5Q540-309 529.658-298.5 519.317-288 504.029-288H180.288ZM216-360v-240 240Zm528 72h-96q-15.3 0-25.65-10.289-10.35-10.29-10.35-25.5Q612-339 622.35-349.5 632.7-360 648-360h96v-96q0-15.3 10.289-25.65 10.29-10.35 25.5-10.35Q795-492 805.5-481.65 816-471.3 816-456v96h96q15.3 0 25.65 10.289 10.35 10.29 10.35 25.5Q948-309 937.65-298.5 927.3-288 912-288h-96v96q0 15.3-10.289 25.65-10.29 10.35-25.5 10.35Q765-156 754.5-166.35 744-176.7 744-192v-96Z"/></svg>

<svg xmlns="http://www.w3.org/2000/svg" height="20" viewBox="0 -960 960 960" width="20"><path d="M180.29-288q-15.29 0-25.79-10.35T144-324v-312q0-15.3 10.35-25.65Q164.7-672 180-672h600q15.3 0 25.65 10.31Q816-651.37 816-636.12v35.87q0 15.25-10.29 25.75t-25.5 10.5q-15.21 0-25.71-10.35T744-600H216v240h288q15.3 0 25.65 10.29Q540-339.42 540-324.21t-10.34 25.71Q519.32-288 504.03-288H180.29ZM216-360v-240 240Zm528 72h-96q-15.3 0-25.65-10.29Q612-308.58 612-323.79t10.35-25.71Q632.7-360 648-360h96v-96q0-15.3 10.29-25.65Q764.58-492 779.79-492t25.71 10.35Q816-471.3 816-456v96h96q15.3 0 25.65 10.29Q948-339.42 948-324.21t-10.35 25.71Q927.3-288 912-288h-96v96q0 15.3-10.29 25.65Q795.42-156 780.21-156t-25.71-10.35Q744-176.7 744-192v-96Z"/></svg>
